/* XPM */
static char *xpm_[] = {
/* columns rows colors chars-per-pixel */
"50 50 39 1 ",
"  c #1B1C2C",
". c #1E2132",
"X c #1F2635",
"o c #202436",
"O c #22263A",
"+ c #24293D",
"@ c #242A3E",
"# c #23303E",
"$ c #262B41",
"% c #282D43",
"& c #233241",
"* c #263745",
"= c #2A3047",
"- c #2C334A",
"; c #2D344C",
": c #273B49",
"> c #293E4C",
", c #303851",
"< c #303952",
"1 c #333B55",
"2 c #333B57",
"3 c #333D57",
"4 c #333C58",
"5 c #333F5A",
"6 c #343F5C",
"7 c #29414F",
"8 c #2A4250",
"9 c #2B4452",
"0 c #2B4653",
"q c #2B4754",
"w c #2C4654",
"e c #2D4958",
"r c #2F4D5B",
"t c #33405C",
"y c #30515F",
"u c #325461",
"i c #345B69",
"p c #37606F",
"a c white",
/* pixels */
"33333333333333333333333333333333333333333333333333",
"33333333333333333333333333333333333333333333333333",
"33333333333333333333333333333333333333333333333333",
"33333333333333333333333333333333333333333333333333",
"33333333333333333333333333333333333333333333333333",
"33333333333333333333333333333333333333333333333333",
"33333333333333333333333333333333333333333333333333",
"33333333333333333322222222222222233333333333333333",
"333333333333333333t3333333333333333333333333333333",
"33333333333333333333333333333333333333333333333333",
"33333333333333333333333333333333333333333333333333",
"33333333333333333333333333333333333323333333333333",
"33333333333333333333333333333333333322333333333333",
"3333333333333333333333errrrrey33333332333333333333",
"333333333333323333333eaaaaaaaXu3333332333333333333",
"333333332222353333333>aaaaaaa&p3333332233333333333",
"333333353353533333333@aaaaaa#i33333333533333333333",
"333333533323333333333Xaaaaaa7333333333333333333333",
"333333333333333333333&aaaaaa0333333333333333333333",
"333333333333333333333*aaaaaa:333333333333333333333",
"332333333333333377788Xaaaaaaa:r3333333333333333333",
"3322333333332537aaaaaaaaaaaaaaaae33333333332333333",
"33223333338880>aaaaaaaaaaaaaaaaaa:77e3333333333333",
"322533333:aaaaaaaaaaaaaaaaaaaaaaaaaaO7333332333333",
"3322333333777788808aaaaaaaaaa&70888>q5333325333333",
"33233333333333335338aaaaaaaa&333333332333332333333",
"33223333333333333338aaaaaaaa7333333333333333333333",
"33335333333333333338aaaaaaaaw333333333333333333333",
"33333333333333333337aaaaaaaaw333333333333333333333",
"33333333333333333337aaaaaaaa0333333333333333333333",
"33333335522333333338aaaaaaaaq333333225333333333333",
"33333322222222333338aaaaaaaaw333333222233333333333",
"33333333333322333339aaaaaaaaw333335333333333333333",
"33333333333322333337a:83330ar333332333333333333333",
"33333333333322333339783333378333332333333333333333",
"33333333333322333333333333333333325333333333333333",
"33333333333332333333333333333333332333333333333333",
"33333333333333333333333333333333333333333333333333",
"33333333333333333333333333333333333333333333333333",
"33333333333333333333333333333333333333333333333333",
"33333333333333333333t32233326643333333333333333333",
"33333333333333333322332222252233333333333333333333",
"33333333333333333332,------;2333333333333333333333",
"3333333333333333334<-@oooo+%<333333333333333333333",
"33333333333333333342;$o  .@-<333333333333333333333",
"333333333333333333332;@o.O-<2333333333333333333333",
"333333333333333333333<;%%%<35233333333333333333333",
"3333333333333333333333<<<2333333333333333333333333",
"33333333333333333333333332333333333333333333333333",
"33333333333333333333333333333333333333333333333333"
};
