/* XPM */
static char *xpm_[] = {
/* columns rows colors chars-per-pixel */
"50 50 46 1 ",
"  c #2F2C2D",
". c #3A373A",
"X c #3C393C",
"o c #333C57",
"O c #464246",
"+ c #4D4A4E",
"@ c #4F4C4F",
"# c #514D51",
"$ c #555256",
"% c #555257",
"& c #565359",
"* c #585459",
"= c #5B575D",
"- c #5C595E",
"; c #5E5A60",
": c #5F5B61",
"> c #605C61",
", c #636066",
"< c #656167",
"1 c #666267",
"2 c #68646B",
"3 c #6A666D",
"4 c #6B676E",
"5 c #6C686E",
"6 c #6E6A70",
"7 c #716C73",
"8 c #726D74",
"9 c #736E75",
"0 c #77737A",
"q c #79757C",
"w c #7B777E",
"e c #7D7880",
"r c #7D7980",
"t c #807B84",
"y c #817C85",
"u c #847F88",
"i c #858088",
"p c #868189",
"a c #89858D",
"s c #8C8790",
"d c #8F8B94",
"f c #928D96",
"g c #949098",
"h c #96919A",
"j c #97919C",
"k c #98939C",
/* pixels */
"oooooooooooooooooooooooooooooooooooooooooooooooooo",
"oooooooooooooooooooooooooooooooooooooooooooooooooo",
"oooooooooooooooooooooooooooooooooooooooooooooooooo",
"oooooooooooooooooooooooooooooooooooooooooooooooooo",
"oooooooooooooooooooooooooooooooooooooooooooooooooo",
"ooooooooo<:<<<<<<<<<<1<<<11>1>111:111<<:15oooooooo",
"ooooooooowwwwwwwwwwwwwwwrrwwwrwrwwwwwwwwwroooooooo",
"oooooooooooooooooooooooooooooooooooooooooooooooooo",
"oooooooooooooooooooooooooooooooooooooooooooooooooo",
"oooo0=oooooooooooooooooooooooooooooooooooooo0=oooo",
"oooo7&ooooooo5#@@@@@@@#@@@@@@@@@###+&foooooo8&oooo",
"oooo8&ooooooooiuupupuuuuuuiiiiiiiiyyaooooooo7&oooo",
"oooo8&oooooooooooooooooooooooooooooooooooooo8&oooo",
"oooo8&ooooyooooooooooooooooooooooooooooorooo8&oooo",
"oooo8&oooa-ooooooooooooooooooooooooooooa:ooo8&oooo",
"oooo8&oooi$ooooooow;==-:=:-=:>-<fooooooy$ooo8&oooo",
"oooo8&oooi*ooooooooffhhfhhgggffhoooooooi*ooo8&oooo",
"oooo8&oooi%ooooooooooooooooooooooooooooi&ooo8&oooo",
"oooo8&oooi*oooopoooooooooooooooooooyoooa&ooo8&oooo",
"oooo8&oooi&ooo8&oooooooooooooooooo8&oooi$ooo8&oooo",
"oooo8&ooop*ooo6&ooooooo5X +foooooo8&ooop$ooo8&oooo",
"oooo8&ooop&ooo8&oooooooo@.5ooooooo8&ooop&ooo8&oooo",
"oooo9&oooi%ooo6&oooooooooaoooooooo8&ooop$ooo8&oooo",
"oooo6*oooi%ooo8&oooo6ooooooooo5ooo8&ooop$ooo8&oooo",
"oooo8&oooi*ooo0&oooo.#oooooooOOooo8&ooop&ooo8&oooo",
"oooo8&oooi*ooo6&oooo Xaooooo5..ooo8&ooop#ooo8&oooo",
"oooo8&oooi*ooo6*oooo+0ooooooo<*ooo8&ooop&ooo8&oooo",
"oooo8&oooi%ooo8*oooogooooooooohooo8&oooi&ooo8&oooo",
"oooo8&oooi*ooo8&ooooooooo,oooooooo8&ooop&ooo8&oooo",
"oooo8&oooi$ooo8&ooooooooO :ooooooo8&oooi&ooo8&oooo",
"oooo8&oooi&ooo6*ooooooo0*+-koooooo8&oooi&ooo8&oooo",
"oooo8&oooi&ooor<oooooooooooooooooor1oooy%ooo8&oooo",
"oooo8&ooop&ooooooooooooooooooooooooooooi*ooo8&oooo",
"oooo8&ooop%ooooooooooooooooooooooooooooi&ooo8&oooo",
"oooo8&ooop&oooooooi:3:213>112>>7oooooooi&ooo8&oooo",
"oooo8&ooop*oooooooy:::::::>:>>>:oooooooi&ooo8&oooo",
"oooo8&oood2oooooooooooooooooooooooooooof>ooo8&oooo",
"oooo8&oooooooooooooooooooooooooooooooooooooo8&oooo",
"oooo8&oooooooooooooooooooooooooooooooooooooo6&oooo",
"oooo6&ooooooor222222222232222222533>8ooooooo8&oooo",
"oooo6*oooooooo66686888688688868686660ooooooo8&oooo",
"ooooo6oooooooooooooooooooooooooooooooooooooopooooo",
"oooooooooooooooooooooooooooooooooooooooooooooooooo",
"oooooooooooooooooooooooooooooooooooooooooooooooooo",
"oooooooow::-:-::;;;;;;;;:::::::::::::::::>fooooooo",
"ooooooooo222522222222222222222222221232236oooooooo",
"oooooooooooooooooooooooooooooooooooooooooooooooooo",
"oooooooooooooooooooooooooooooooooooooooooooooooooo",
"oooooooooooooooooooooooooooooooooooooooooooooooooo",
"oooooooooooooooooooooooooooooooooooooooooooooooooo"
};
