/* XPM */
static char *xpm_[] = {
/* columns rows colors chars-per-pixel */
"50 50 4 1 ",
"  c #3B383B",
". c #333C57",
"X c #02BE00",
"o c #02FF00",
/* pixels */
"..................................................",
"..................................................",
"..................................................",
"..................................................",
".......oooooooooooooooooooooooooooooooooooo.......",
"........XXXXXXXXXXXXXXXXXXXXXXXXXXXXXXXXXX........",
"..................................................",
"....o........................................o....",
"....oX......................................Xo....",
"....oX......oooooooooooooooooooooooooo......Xo....",
"....oX.......XXXXXXXXXXXXXXXXXXXXXXXX.......Xo....",
"....oX......................................Xo....",
"....oX...o..............................o...Xo....",
"....oX...oX............................Xo...Xo....",
"....oX...oX......oooooooooooooooo......Xo...Xo....",
"....oX...oX.......XXXXXXXXXXXXXX.......Xo...Xo....",
"....oX...oX............................Xo...Xo....",
"....oX...oX...o....................o...Xo...Xo....",
"....oX...oX...oX..................Xo...Xo...Xo....",
"....oX...oX...oX.......oooo.......Xo...Xo...Xo....",
"....oX...oX...oX........XX........Xo...Xo...Xo....",
"....oX...oX...oX......... ........Xo...Xo...Xo....",
"....oX...oX...oX..................Xo...Xo...Xo....",
"....oX...oX...oX...o..........o...Xo...Xo...Xo....",
"....oX...oX...oX...oX...XX...Xo...Xo...Xo...Xo....",
"....oX...oX...oX...oX...XX...Xo...Xo...Xo...Xo....",
"....oX...oX...oX...o..........o...Xo...Xo...Xo....",
"....oX...oX...oX..................Xo...Xo...Xo....",
"....oX...oX...oX..................Xo...Xo...Xo....",
"....oX...oX...oX........XX........Xo...Xo...Xo....",
"....oX...oX...oX.......oooo.......Xo...Xo...Xo....",
"....oX...oX...oX..................Xo...Xo...Xo....",
"....oX...oX...o....................o...Xo...Xo....",
"....oX...oX............................Xo...Xo....",
"....oX...oX.......XXXXXXXXXXXXXX.......Xo...Xo....",
"....oX...oX......oooooooooooooooo......Xo...Xo....",
"....oX...oX............................Xo...Xo....",
"....oX...o..............................o...Xo....",
"....oX......................................Xo....",
"....oX.......XXXXXXXXXXXXXXXXXXXXXXXX.......Xo....",
"....oX......oooooooooooooooooooooooooo......Xo....",
"....oX......................................Xo....",
"....o........................................o....",
"..................................................",
"........XXXXXXXXXXXXXXXXXXXXXXXXXXXXXXXXXX........",
".......oooooooooooooooooooooooooooooooooooo.......",
"..................................................",
"..................................................",
"..................................................",
".................................................."
};
