/* XPM */
static char *d3ecf70986674e47adfbc5a291a0c06c3qfGMojqpmy5fUT8[] = {
/* columns rows colors chars-per-pixel */
"50 50 44 1 ",
"  c #171727",
". c #181A2A",
"X c #1A1B2C",
"o c #1B1C2C",
"O c #1D2232",
"+ c #1F2234",
"@ c #1F2635",
"# c #1F2838",
"$ c #202436",
"% c #22263A",
"& c #242A3E",
"* c #222E3E",
"= c #23303E",
"- c #262B40",
"; c #272C42",
": c #282D43",
"> c #233241",
", c #243241",
"< c #263745",
"1 c #2A3047",
"2 c #2B334B",
"3 c #2C334B",
"4 c #2D344C",
"5 c #273B49",
"6 c #273C4A",
"7 c #293E4C",
"8 c #2F3750",
"9 c #303952",
"0 c #333B57",
"q c #333D57",
"w c #333F5A",
"e c #343F5C",
"r c #29414F",
"t c #2A4250",
"y c #2B4653",
"u c #2B4754",
"i c #2C4654",
"p c #2D4958",
"a c #2F4D5B",
"s c #33405C",
"d c #30515F",
"f c #325461",
"g c #345B69",
"h c #37606F",
/* pixels */
"qqqqqqqqqqqqqqqqqqqqqqqqqqqqqqqqqqqqqqqqqqqqqqqqqq",
"qqqqqqqqqqqqqqqqqqqqqqqqqqqqqqqqqqqqqqqqqqqqqqqqqq",
"qqqqqqqqqqqqqqqqqqqqqqqqqqqqqqqqqqqqqqqqqqqqqqqqqq",
"qqqqqqqqqqqqqqqqqqqqqqqqqqqqqqqqqqqqqqqqqqqqqqqqqq",
"qqqqqqqqqqqqqqqqqqqqqqqqqqqqqqqqqqqqqqqqqqqqqqqqqq",
"qqqqqqqqqqqqqqqqqqqqqqqqqqqqqqqqqqqqqqqqqqqqqqqqqq",
"qqqqqqqqqqqqqqqqqqqqqqqqqqqqqqqqqqqqqqqqqqqqqqqqqq",
"qqqqqqqqqqqqqqqqqq000000000000000qqqqqqqqqqqqqqqqq",
"qqqqqqqqqqqqqqqqqqwqqqqqqqqqqqqqqqqqqqqqqqqqqqqqqq",
"qqqqqqqqqqqqqqqqqqqqqqqqqqqqqqqqqqqqqqqqqqqqqqqqqq",
"qqqqqqqqqqqqqqqqqqqqqqqqqqqqqqqqqqqqqqqqqqqqqqqqqq",
"qqqqqqqqqqqqqqqqqqqqqqqqqqqqqqqqqqqq0qqqqqqqqqqqqq",
"qqqqqqqqqqqqqqqqqqqqqqqqqqqqqqqqqqqq00qqqqqqqqqqqq",
"qqqqqqqqqqqqqqqqqqqqqqpaaaaapdqqqqqqq0qqqqqqqqqqqq",
"qqqqqqqqqqqqq0qqqqqqqpoOOOOOo@fqqqqqq0qqqqqqqqqqqq",
"qqqqqqqq0000qwqqqqqqq7 .....o>hqqqqqq00qqqqqqqqqqq",
"qqqqqqqwqqwqwqqqqqqqq=.Xoo..=gqqqqqqqqwqqqqqqqqqqq",
"qqqqqqwqqqqqqqqqqqqqq@.Xoo..rqqqqqqqqqqqqqqqqqqqqq",
"qqqqqqqqqqqqqqqqqqqqq>.Xoo..yqqqqqqqqqqqqqqqqqqqqq",
"qqqqqqqqqqqqqqqqqqqqq<..oo..5qqqqqqqqqqqqqqqqqqqqq",
"qq0qqqqqqqqqqqqqttttt@XooooX@5aqqqqqqqqqqqqqqqqqqq",
"qq0wqqqqqqqqqqqt&OOOooooooooooO#pqqqqqqqqqqwqqqqqq",
"qq0wqqqqqqytyy7*o...XoooooooX...#6trpqqqqqqwqqqqqq",
"qq0wqqqqq5OoOOOoooooooooooooooooooOo#tqqqqqwqqqqqq",
"qq0wqqqqqqtrrtttyyt@oXooooo.O>ryytt7iqqqqqqwqqqqqq",
"qq0wqqqqqqqqqqqqqqqtO.ooooX.,qqqqqqqqqqqqqqwqqqqqq",
"qq0wqqqqqqqqqqqqqqqtO.oooo..tqqqqqqqqqqqqqqqqqqqqq",
"qqqqwqqqqqqqqqqqqqqtO.oooo..iqqqqqqqqqqqqqwqqqqqqq",
"qqqqqqqqqqqqqqqqqqqtO.oooo..iqqqqqqqqqqqqqqqqqqqqq",
"qqqqqqqqqqqqqqqqqqqtO.oooo..uqqqqqqqqqqqqqqqqqqqqq",
"qqqqqqqwwwwwqqqqqqqtO.oooo..uqqqqqqwwwqqqqqqqqqqqq",
"qqqqqqq0000000qqqqqtO ......iqqqqqq0000qqqqqqqqqqq",
"qqqqqqqqqqqq00qqqqqt@oOOOOOXiqqqqqwqqqqqqqqqqqqqqq",
"qqqqqqqqqqqq00qqqqqt<6tqqqy=aqqqqqwqqqqqqqqqqqqqqq",
"qqqqqqqqqqqq00qqqqqtttqqqqqttqqqqqwqqqqqqqqqqqqqqq",
"qqqqqqqqqqqq00qqqqqqqqqqqqqqqqqqqqwqqqqqqqqqqqqqqq",
"qqqqqqqqqqqqq0qqqqqqqqqqqqqqqqqqqqwqqqqqqqqqqqqqqq",
"qqqqqqqqqqqqqqqqqqqqqqqqqqqqqqqqqqqqqqqqqqqqqqqqqq",
"qqqqqqqqqqqqqqqqqqqqqqqqqqqqqqqqqqqqqqqqqqqqqqqqqq",
"qqqqqqqqqqqqqqqqqqqqqqqqqqqqqqqqqqqqqqqqqqqqqqqqqq",
"qqqqqqqqqqqqqqqqqqqqsewqqqqqeewqqqqqqqqqqqqqqqqqqq",
"qqqqqqqqqqqqqqqqqq0000000000000qqqqqqqqqqqqqqqqqqq",
"qqqqqqqqqqqqqqqqqqq0943333380qqqqqqqqqqqqqqqqqqqqq",
"qqqqqqqqqqqqqqqqqqw03&$$$$%19qqqqqqqqqqqqqqqqqqqqq",
"qqqqqqqqqqqqqqqqqqw04-+ooO&20qqqqqqqqqqqqqqqqqqqqq",
"qqqqqqqqqqqqqqqqqqqq04-+O%390qqqqqqqqqqqqqqqqqqqqq",
"qqqqqqqqqqqqqqqqqqqqq04:;29qwqqqqqqqqqqqqqqqqqqqqq",
"qqqqqqqqqqqqqqqqqqqqqq0990qqqqqqqqqqqqqqqqqqqqqqqq",
"qqqqqqqqqqqqqqqqqqqqqqqqqwqqqqqqqqqqqqqqqqqqqqqqqq",
"qqqqqqqqqqqqqqqqqqqqqqqqqqqqqqqqqqqqqqqqqqqqqqqqqq"
};
