/* XPM */
static char *xpm_[] = {
/* columns rows colors chars-per-pixel */
"50 50 40 1 ",
"  c #171626",
". c #171727",
"X c #19192A",
"o c #181A2A",
"O c #1A1B2A",
"+ c #1A1B2C",
"@ c #1B1C2C",
"# c #1B1E2E",
"$ c #1B1F2E",
"% c #1C2130",
"& c #1E2132",
"* c #1D2232",
"= c #1F2635",
"- c #1F2838",
"; c #202436",
": c #22263A",
"> c #24293D",
", c #222E3E",
"< c #23303E",
"1 c #262B41",
"2 c #233241",
"3 c #243241",
"4 c #263745",
"5 c #273B49",
"6 c #293E4C",
"7 c #273C57",
"8 c #29414F",
"9 c #294150",
"0 c #2A4250",
"q c #2B4452",
"w c #2C4654",
"e c #2C4755",
"r c #2D4958",
"t c #2F4D5B",
"y c #2F4E5A",
"u c #30515F",
"i c #325461",
"p c #345B69",
"a c #37606F",
"s c #576E88",
/* pixels */
"7777ssssssssssssssssssssssssssssssssssssssssss7777",
"777ssssssssssssssssssssssssssssssssssssssssssss777",
"77ssssssssssssssssssssssssssssssssssssssssssssss77",
"7ssssssssssssssssssssssssssssssssssssssssssssssss7",
"ssssssssssssssssssssssssssssssssssssssssssssssssss",
"ssssssssssssssssssssssssssssssssssssssssssssssssss",
"ssssssssssssssssssssssssssssssssssssssssssssssssss",
"ssssssssssssssssssssssssssssssssssssssssssssssssss",
"ssssssssssssssssssssssssssssssssssssssssssssssssss",
"ssssssssssssssssssssssssssssssssssssssssssssssssss",
"ssssssssssssssssssssssssssssssssssssssssssssssssss",
"ssssssssssssssssssssssssssssssssssssssssssssssssss",
"ssssssssssssssssssssssssssssssssssssssssssssssssss",
"ssssssssssssssssssssssrtttttrussssssssssssssssssss",
"sssssssssssssssssssssr@*****@=isssssssssssssssssss",
"sssssssssssssssssssss6.ooooo@2asssssssssssssssssss",
"sssssssssssssssssssss,oo@@oo<pssssssssssssssssssss",
"sssssssssssssssssssss=@@@@oo0sssssssssssssssssssss",
"sssssssssssssssssssss<@@@@ooesssssssssssssssssssss",
"sssssssssssssssssssss4oo@@@o5sssssssssssssssssssss",
"ssssssssssssssss80888=@@@@@@;5tsssssssssssssssssss",
"sssssssssssssss0>****@@@@@@@@*%=tsssssssssssssssss",
"sssssssssse90081@oooo@@@@@@@oooo-580rsssssssssssss",
"sssssssss5*$%%%@@@o@@@@@@@@@@@@@@@%@:0ssssssssssss",
"ssssssssss6099000e0;@@@@@@@o=280w086wsssssssssssss",
"sssssssssssssssssss0*o@@@@oo1sssssssssssssssssssss",
"sssssssssssssssssss0*X@@@@oo0sssssssssssssssssssss",
"sssssssssssssssssss6* @@@@@oesssssssssssssssssssss",
"sssssssssssssssssss0*Xo@@@ooesssssssssssssssssssss",
"sssssssssssssssssss6&X@@@@o esssssssssssssssssssss",
"sssssssssssssssssssw*X@@@@ooesssssssssssssssssssss",
"sssssssssssssssssss0* ooooooesssssssssssssssssssss",
"sssssssssssssssssss0:o*****owsssssssssssssssssssss",
"sssssssssssssssssss0460ssse,tsssssssssssssssssssss",
"sssssssssssssssssss080sssss60sssssssssssssssssssss",
"ssssssssssssssssssssssssssssssssssssssssssssssssss",
"ssssssssssssssssssssssssssssssssssssssssssssssssss",
"ssssssssssssssssssssssssssssssssssssssssssssssssss",
"ssssssssssssssssssssssssssssssssssssssssssssssssss",
"ssssssssssssssssssssssssssssssssssssssssssssssssss",
"ssssssssssssssssssssssssssssssssssssssssssssssssss",
"ssssssssssssssssssssssssssssssssssssssssssssssssss",
"ssssssssssssssssssssssssssssssssssssssssssssssssss",
"sssssssssssssssssssss::*==-sssssssssssssssssssssss",
"sssssssssssssssssssss1;#+*>sssssssssssssssssssssss",
"ssssssssssssssssssssss1=*:ssssssssssssssssssssssss",
"7ssssssssssssssssssssssssssssssssssssssssssssssss7",
"77ssssssssssssssssssssssssssssssssssssssssssssss77",
"777ssssssssssssssssssssssssssssssssssssssssssss777",
"7777ssssssssssssssssssssssssssssssssssssssssss7777"
};
